X: 1237
T: Ballaarat Waltz
C:M. Binder, (pub 1865)
B: australian traditional tunes wiki
M:3/4
L:1/8
R: Waltz
Q: 1/4=100
K:G
V:1 
D2|"G"GBD2D2|"Am7"AcD2D2|"Bm7"BdD2D2|B2z2D2|"D7"AcD2D2|A2z2D2|"G"GBB,2B,2|G2z2D2|
GBD2D2|"Am7"AcD2D2|"Bm7"BdD2D2|B2z2D2|"D7"AcD2D2|A2B3D|"G"G2z2B,D|[B,2G2]z2z2||
"G"DCD2^D2|"Am7"E^DE2F2|"Bm7"GFG2A2|"C"c4"G"B2|"C"E^DE2F2|"G"GFG2^G2|"Am7"A^GA2B2|"C"e2z2"G"d2|
"G"DCD2^D2|"Am"E^DE2F2|"Bm7"GFG2A2|"C"c4"G"B2|"D"AGA2B2|"D7"cBc2d2|cBb2a2|"G" g6||
"G"G2GDB2|G2GDB2|"D7"A2ADc2|A2ADc2|F2FDA2|F2FDA2|"G"G2GDB2|B2BDd2|
G2GDB2|G2GDB2|"D"A2ADc2|A2ADc2|"D7"F2FDA2|F2FDA2|"G"G2GDB2|G6||
"G"BG DB,G,2|BG DB,G,2|"Am"dc AEC2|dc AEC2|"D7"BA FDC2|BA FDC2|"G"AG DB,G,2|AG DB,G,2|
"G" BG DB,G,2|BG DB,G,2|"Am"dc AEC2|dc AEC2|"D7"BA FDC2|BA FDC2|"G"gd BG BA|"G"H[B,4G4]z2||
% abcbook-tune_id 6342d53a38743d6337732ea4


% abcbook-boost 0
% abcbook-tablature 
% abcbook-transpose 
% abcbook-lastupdated 1665324355340
% abcbook-soundfonts 
% abcbook-repeats 1
% NFF Book 2018

